X:1
T:SOMETIMES I WISH I WERE A BOY
C:John Gluck
Z:Creative Commons BY
L:1/8
Q:1/4=120
M:4/4
K:C
V:1 treble nm="MusicXML Part"
%%MIDI program 0
V:1
|:"C" z2 GA G2 GA |"E7" Bc-cB- B2 z B |"F" c2 d2 F2 A2 |"Fm" c6 d2 |"C" e3- e c2 G2 | %5
w: I'm a girl amd its|won der _ ful _ It|fills my heart with|joy but|SOME _ TIMES (yes)|
w: |||||
w: |||||
"E7" _A3"Am" =A- A2 z A |"F" c2 c2"G7" dd-d"C"c |"^VERSES" z4"E7" z2 CB, | %8
w: SOME TIMES _ I|WISH I WERE A _ BOY!|I've been|
w: ||Oh he's|
w: ||Now the|
"Am""^this is a song from \"Big\" Johney Gluck - writer of ITS MY PARTY" A,2 B,2 C2 D2 | %9
w: stand ing by the|
w: danc ing with an|
w: rec ord hop is|
"E" E2 E4 ED |"C" C2 D2"G7" E2 FG- |"C" G2 z2 z2 GA |"Em" B2 GA"B7" BBcA |"Em" BB z2 z2 GA | %14
w: juke box hop ing|he'll ask me to dance|_ How I|wish I could run to him and|"hug" him but a|
w: oth er and he's|hold ing her so tight|_ Wish I|had nerve to cut right in and|stop it but a|
w: o ver and I|think he caught my eye|_ Here he|cums head in' straight in my dir|ec tion there he|
"Am9" B2 BB"D7" cd e2 |"G" d6 z2 |"G9" e3 e- edcA ::"C" e3- e c2 G2 |"E7" _A3"Am" =A- A2 z A | %19
w: girl mus n't make an ad|vance||SOME _ TIMES (yes)|SOME TIMES _ I|
w: girl has to be _ po|lite|OH, OH _ _ _ _|_ _ _ _||
w: goes he's _ pass ing me|by||||
"F" c2 c2"G7" dd-dc |"C" z4"G7" z2 z2 :| %21
w: WISH I WERE A _ BOY!||
w: ||
w: ||

